dist/svg/static/engine-large.svg

<svg xmlns="http://www.w3.org/2000/svg" width="48" height="48" viewBox="0 0 48px 48px"><g fill="none" stroke="currentColor" stroke-miterlimit="10"><path d="M18 9.5h11M23.5 9.5v4M8.5 24.5h-5M3.5 19v12M39.5 30.5h-3v3.262c0 2.676-2.209 2.738-2.209 2.738H20.295l-4.795-6h-7V18.4l6-4.9h15.058l6.942 6v2.932h3V18.5h2c1.65 0 3 1.25 3 2.9v9.1a3 3 0 0 1-3 3h-2v-3z"/></g></svg>

<?xml version="1.0" encoding="UTF-8" standalone="no"?>
<svg width="48px" height="48px" viewBox="0 0 48 48" version="1.1" xmlns="http://www.w3.org/2000/svg" xmlns:xlink="http://www.w3.org/1999/xlink">
    <!-- Generator: sketchtool 46.2 (44496) - http://www.bohemiancoding.com/sketch -->
    <title>engine-large</title>
    <desc>Created with sketchtool.</desc>
    <defs></defs>
    <g id="icons-published" stroke="none" stroke-width="1" fill="none" fill-rule="evenodd">
        <g id="briefing" transform="translate(-2016.000000, -538.000000)"></g>
        <g id="engine-large" stroke="#000000">
            <path d="M18,9.5 L29,9.5 L18,9.5 Z M23.5,9.5 L23.5,13.5 L23.5,9.5 Z M8.5,24.5 L3.5,24.5 L8.5,24.5 Z M3.5,19 L3.5,31 L3.5,19 Z M39.5,30.5 L36.5,30.5 L36.5,33.8 C36.5,36.5 34.3,36.5 34.3,36.5 L20.3,36.5 L15.5,30.5 L8.5,30.5 L8.5,18.4 L14.5,13.5 L29.6,13.5 L36.5,19.5 L36.5,22.4 L39.5,22.4 L39.5,18.5 L41.5,18.5 C43.2,18.5 44.5,19.7 44.5,21.4 L44.5,30.5 C44.5,32.2 43.2,33.5 41.5,33.5 L39.5,33.5 L39.5,30.5 Z" id="Shape"></path>
        </g>
    </g>
</svg>
